svg/numeric_8_box_multiple.svg

<svg xmlns="http://www.w3.org/2000/svg" viewBox="0 0 24 24"><path d="M13 11h2v2h-2zm0-4h2v2h-2zM3 5v16h16v2H3a2 2 0 0 1-2-2V5zm10 10h2a2 2 0 0 0 2-2v-1.5a1.5 1.5 0 0 0-1.5-1.5A1.5 1.5 0 0 0 17 8.5V7a2 2 0 0 0-2-2h-2a2 2 0 0 0-2 2v1.5a1.5 1.5 0 0 0 1.5 1.5 1.5 1.5 0 0 0-1.5 1.5V13a2 2 0 0 0 2 2m8-14a2 2 0 0 1 2 2v14a2 2 0 0 1-2 2H7a2 2 0 0 1-2-2V3a2 2 0 0 1 2-2z"/></svg>

<?xml version="1.0" encoding="UTF-8"?><!DOCTYPE svg PUBLIC "-//W3C//DTD SVG 1.1//EN" "http://www.w3.org/Graphics/SVG/1.1/DTD/svg11.dtd"><svg xmlns="http://www.w3.org/2000/svg" xmlns:xlink="http://www.w3.org/1999/xlink" version="1.1" id="mdi-numeric-8-box-multiple" width="24" height="24" viewBox="0 0 24 24"><path d="M13,11H15V13H13V11M13,7H15V9H13V7M3,5V21H19V23H3A2,2 0 0,1 1,21V5H3M13,15H15A2,2 0 0,0 17,13V11.5A1.5,1.5 0 0,0 15.5,10A1.5,1.5 0 0,0 17,8.5V7C17,5.89 16.1,5 15,5H13A2,2 0 0,0 11,7V8.5A1.5,1.5 0 0,0 12.5,10A1.5,1.5 0 0,0 11,11.5V13C11,14.11 11.9,15 13,15M21,1A2,2 0 0,1 23,3V17A2,2 0 0,1 21,19H7A2,2 0 0,1 5,17V3A2,2 0 0,1 7,1H21Z" /></svg>
